src/lib/packages/icons/src/assets/line/chat-times-alt.svg

<svg width="24" height="24" viewBox="0 0 24 24" fill="none" xmlns="http://www.w3.org/2000/svg">
<path d="M12.001 2.25C6.626 2.25 2.25295 6.62302 2.25295 11.999C2.25295 13.399 2.56405 14.808 3.15505 16.082C3.27005 16.325 3.27893 16.633 3.18093 16.94L2.34011 19.441C2.13011 20.073 2.29311 20.76 2.76711 21.233C3.10311 21.569 3.54692 21.749 4.00392 21.749C4.18992 21.749 4.37705 21.719 4.56105 21.658L7.05007 20.822C7.36807 20.721 7.67707 20.729 7.92507 20.848C9.19207 21.437 10.601 21.748 12 21.748C17.376 21.748 21.749 17.375 21.749 11.999C21.749 6.62302 17.377 2.25 12.001 2.25ZM12.001 20.248C10.818 20.248 9.62796 19.985 8.56496 19.491C7.97596 19.21 7.27703 19.176 6.58303 19.397L4.08498 20.236C3.95998 20.278 3.8699 20.214 3.8279 20.172C3.7859 20.13 3.72193 20.041 3.76393 19.916L4.60793 17.405C4.82493 16.722 4.78996 16.023 4.51296 15.442C4.01596 14.372 3.75295 13.182 3.75295 11.998C3.75295 7.44999 7.453 3.74902 12.001 3.74902C16.55 3.74902 20.25 7.44899 20.25 11.998C20.25 16.547 16.55 20.248 12.001 20.248ZM15.03 10.03L13.0601 12L15.03 13.97C15.323 14.263 15.323 14.738 15.03 15.031C14.884 15.177 14.692 15.251 14.5 15.251C14.308 15.251 14.116 15.178 13.97 15.031L12 13.061L10.03 15.031C9.88405 15.177 9.69202 15.251 9.50002 15.251C9.30802 15.251 9.11599 15.178 8.96999 15.031C8.67699 14.738 8.67699 14.263 8.96999 13.97L10.94 12L8.96999 10.03C8.67699 9.73703 8.67699 9.26199 8.96999 8.96899C9.26299 8.67599 9.73802 8.67599 10.031 8.96899L12.001 10.939L13.971 8.96899C14.264 8.67599 14.739 8.67599 15.032 8.96899C15.323 9.26199 15.323 9.73803 15.03 10.03Z" fill="currentColor"/>
</svg>

<svg xmlns="http://www.w3.org/2000/svg" width="24" height="24" fill="none"><path fill="currentColor" d="M12.001 2.25c-5.375 0-9.748 4.373-9.748 9.749 0 1.4.311 2.809.902 4.083.115.243.124.551.026.858l-.84 2.501a1.743 1.743 0 0 0 .426 1.792 1.745 1.745 0 0 0 1.794.425l2.49-.836c.317-.101.626-.093.874.026a9.73 9.73 0 0 0 4.075.9c5.376 0 9.749-4.373 9.749-9.749S17.377 2.25 12.001 2.25Zm0 17.998a8.214 8.214 0 0 1-3.436-.757c-.589-.281-1.288-.315-1.982-.094l-2.498.839a.244.244 0 0 1-.257-.064.242.242 0 0 1-.064-.256l.844-2.511c.217-.683.182-1.382-.095-1.963a8.227 8.227 0 0 1-.76-3.444c0-4.548 3.7-8.249 8.248-8.249 4.549 0 8.249 3.7 8.249 8.249s-3.7 8.25-8.249 8.25ZM15.03 10.03 13.06 12l1.97 1.97a.75.75 0 0 1-1.06 1.061L12 13.061l-1.97 1.97a.748.748 0 0 1-1.06 0 .75.75 0 0 1 0-1.061L10.94 12l-1.97-1.97a.75.75 0 1 1 1.061-1.061l1.97 1.97 1.97-1.97a.75.75 0 1 1 1.059 1.061Z"/></svg>
